symbolic/48x48/places/folder-yellow-gitlab.svg

<svg xmlns="http://www.w3.org/2000/svg" width="48" height="48" version="1">
 <rect style="opacity:0.2" width="40" height="26" x="4" y="17" rx="2" ry="2"/>
 <path style="fill:#b58f1b" d="M 4,34 C 4,35.108 4.892,36 6,36 H 42 C 43.108,36 44,35.108 44,34 V 12 C 44,10.892 43.108,10 42,10 H 24 C 21,10 20,6 17,6 H 6 C 4.892,6 4,6.892 4,8"/>
 <rect style="opacity:0.2" width="40" height="26" x="4" y="15" rx="2" ry="2"/>
 <rect style="fill:#b2bfd9" width="36" height="16" x="6" y="13" rx="2" ry="2"/>
 <rect style="fill:#e2b322" width="40" height="26" x="4" y="16" rx="2" ry="2"/>
 <path style="opacity:0.1;fill:#f4f4f7" d="M 6,6 C 4.892,6 4,6.892 4,8 V 9 C 4,7.892 4.892,7 6,7 H 17 C 20,7 21,11 24,11 H 42 C 43.108,11 44,11.892 44,13 V 12 C 44,10.892 43.108,10 42,10 H 24 C 21,10 20,6 17,6 Z"/>
 <path style="fill:#4f3e0c;fill-rule:evenodd" d="M 18.990234 22 C 18.868036 22 18.744852 22.065769 18.699219 22.199219 L 16.925781 27 L 21.054688 27 L 19.279297 22.199219 C 19.233642 22.065769 19.112433 22 18.990234 22 z M 21.054688 27 L 24 36 L 26.945312 27 L 21.054688 27 z M 26.945312 27 L 31.074219 27 L 29.300781 22.199219 C 29.209514 21.932319 28.812013 21.932319 28.720703 22.199219 L 26.945312 27 z M 31.074219 27 L 24 36 L 31.748047 30.652344 C 31.96185 30.504834 32.052353 30.242626 31.970703 30.003906 L 31.074219 27 z M 24 36 L 16.925781 27 L 16.029297 30.003906 C 15.947647 30.242626 16.038151 30.504834 16.251953 30.652344 L 24 36 z"/>
</svg>

<svg xmlns="http://www.w3.org/2000/svg" width="48" height="48" version="1"><rect style="opacity:.2" width="40" height="26" x="4" y="17" rx="2" ry="2"/><path style="fill:#b58f1b" d="M4 34c0 1.108.892 2 2 2h36c1.108 0 2-.892 2-2V12c0-1.108-.892-2-2-2H24c-3 0-4-4-7-4H6c-1.108 0-2 .892-2 2"/><rect style="opacity:.2" width="40" height="26" x="4" y="15" rx="2" ry="2"/><rect style="fill:#b2bfd9" width="36" height="16" x="6" y="13" rx="2" ry="2"/><rect style="fill:#e2b322" width="40" height="26" x="4" y="16" rx="2" ry="2"/><path style="opacity:.1;fill:#f4f4f7" d="M6 6c-1.108 0-2 .892-2 2v1c0-1.108.892-2 2-2h11c3 0 4 4 7 4h18c1.108 0 2 .892 2 2v-1c0-1.108-.892-2-2-2H24c-3 0-4-4-7-4z"/><path style="fill:#4f3e0c;fill-rule:evenodd" d="M18.99 22a.299.299 0 0 0-.29.2L16.925 27h4.129l-1.776-4.8a.297.297 0 0 0-.289-.2zm2.065 5L24 36l2.945-9h-5.89zm5.89 0h4.13L29.3 22.2c-.091-.268-.489-.268-.58 0L26.945 27zm4.13 0L24 36l7.748-5.348a.565.565 0 0 0 .223-.648L31.074 27zM24 36l-7.074-9-.897 3.004c-.081.239.01.5.223.648L24 36z"/></svg>
